X: 558
T: Festival Waltz
B: jims roots
M:3/4
L:1/8
Q: 1/4=100
K:A
V:1 
%england
CB, | "A"A,2C3E | G2F3E | F2G2A2 | C4CB, | A,2C3E | G2F3E |
"E"F2D2C2 | (B,4B,)A, | B,2C2D2 | E2F2G2 | A2G3A | G4GF |
E2B,3E | "E+7"=C4E2 | "A"(C4C)D | C4CB, | A,2C3E | G2F3E |
F2G2A2 | C4CB, | "A7"A,CEGAc | B4A2 | "D"a2f3A | f4AA |
a2f3A | "Dm"a2=f3A | "A"a2e2cB | A2E2GB | "E"e4e2 | c3dcB |
"A"(A4A)B | ABcd(3efg | a3baf | g3age | f3gfe | c4ee |
f2e2cB | A2c3e | "E"e2d2B2 | G4E2 | b2g3a | g2f2e2 |
b2g3a | g4gf | e2B3e | "E+7"=c4e2 | "A"(c4c)d | c3Ace |
a3baf | g3age | f3gfe | c4AA | "A7"A2B2=c2 | c3BA2 |
"D"a2f3A | f4AA | a2f3A | "A7"a2=f3A | "A"a2e2cB | A2E2GB |
"E"e4e2 | c3dcB | "A"(A4A)B | A4 |]
% abcbook-tune_id 6298c25dc3558ca5f4009568


% abcbook-boost 0
% abcbook-tablature 
% abcbook-transpose 
% abcbook-lastupdated 1654178397934
% abcbook-soundfonts 
% abcbook-repeats 1


